static/assets/img/icons/theme/map/location-arrow.svg

<svg height="24" viewBox="0 0 24 24" width="24" xmlns="http://www.w3.org/2000/svg"><g fill="none" fill-rule="evenodd"><path d="m0 0h24v24h-24z" opacity="0"/><path d="m4.88230018 17.2353996 8.40215802-16.80431609c.1975914-.3951828.6781299-.55536228 1.0733127-.35777088.1548219.07741096.2803599.20294895.3577709.35777088l8.402158 16.80431609c.1975914.3951828.0374119.8757213-.3577709 1.0733127-.1934767.0967383-.4178818.1110042-.6220512.0395449l-8.1378777-2.8482572-8.13787773 2.8482572c-.41702286.145958-.87340902-.0737835-1.01936702-.4908063-.07145928-.2041694-.05719343-.4285745.03954493-.6220513z" fill="#000" fill-rule="nonzero" transform="matrix(.70710678 .70710678 -.70710678 .70710678 10.599573 -7.207565)"/></g></svg>

<svg width="24px" height="24px" viewBox="0 0 24 24" version="1.1" xmlns="http://www.w3.org/2000/svg" xmlns:xlink="http://www.w3.org/1999/xlink">
    <title>Icon For Location-arrow</title>
    <g stroke="none" stroke-width="1" fill="none" fill-rule="evenodd">
        <rect opacity="0" x="0" y="0" width="24" height="24"></rect>
        <path d="M4.88230018,17.2353996 L13.2844582,0.431083506 C13.4820496,0.0359007077 13.9625881,-0.12427877 14.3577709,0.0733126292 C14.5125928,0.15072359 14.6381308,0.276261584 14.7155418,0.431083506 L23.1176998,17.2353996 C23.3152912,17.6305824 23.1551117,18.1111209 22.7599289,18.3087123 C22.5664522,18.4054506 22.3420471,18.4197165 22.1378777,18.3482572 L14,15.5 L5.86212227,18.3482572 C5.44509941,18.4942152 4.98871325,18.2744737 4.84275525,17.8574509 C4.77129597,17.6532815 4.78556182,17.4288764 4.88230018,17.2353996 Z" fill="#000000" fill-rule="nonzero" transform="translate(14.000087, 9.191034) rotate(-315.000000) translate(-14.000087, -9.191034) "></path>
    </g>
</svg>
